public/icon/24/css.svg

<svg width="24" height="24" viewBox="0 0 24 24" fill="none" xmlns="http://www.w3.org/2000/svg">
<path d="M6 2H18V8.66667L21 12L18 15.3333V22H6V15.3333L3 12L6 8.66667V2Z" fill="white"/>
<path d="M9 2H7.41667C6.58824 2 5.91667 2.67157 5.91667 3.5V8.4788C5.91667 8.59991 5.87271 8.71691 5.79295 8.80805L3.2881 11.6707C3.12315 11.8593 3.12315 12.1407 3.2881 12.3293L5.79295 15.1919C5.87271 15.2831 5.91667 15.4001 5.91667 15.5212V20.5C5.91667 21.3284 6.58824 22 7.41667 22H9" stroke="#092E24" stroke-width="2"/>
<path d="M15 2H16.5833C17.4118 2 18.0833 2.67157 18.0833 3.5V8.4788C18.0833 8.59991 18.1273 8.71691 18.207 8.80805L20.7119 11.6707C20.8769 11.8593 20.8769 12.1407 20.7119 12.3293L18.207 15.1919C18.1273 15.2831 18.0833 15.4001 18.0833 15.5212V20.5C18.0833 21.3284 17.4118 22 16.5833 22H15" stroke="#092E24" stroke-width="2"/>
</svg>

<svg width="24" height="24" viewBox="0 0 24 24">
  <g class="css">
    <path d="M6 2h12v6.667L21 12l-3 3.333V22H6v-6.667L3 12l3-3.333V2Z" class="fill-white"/>
    <path d="M9 2H7.417a1.5 1.5 0 0 0-1.5 1.5v4.979a.5.5 0 0 1-.124.33L3.288 11.67a.5.5 0 0 0 0 .658l2.505 2.863a.5.5 0 0 1 .124.33V20.5a1.5 1.5 0 0 0 1.5 1.5H9" class="fill-none stroke-current stroke-2 sl-r"/>
    <path d="M15 2h1.583a1.5 1.5 0 0 1 1.5 1.5v4.979a.5.5 0 0 0 .124.33l2.505 2.862a.5.5 0 0 1 0 .658l-2.505 2.863a.5.5 0 0 0-.124.33V20.5a1.5 1.5 0 0 1-1.5 1.5H15" class="fill-none stroke-current stroke-2 sl-r"/>
  </g>
</svg>
